X: 613
T:Bag of Spuds, The
M:4/4
L:1/8
Z:Andrew Pickering
N:Posted to the woodenflute mailing list December 2002
K:G
BcdB cdec|BcdB A2 G2|BcdB cded|gabg a2 g2:|
gabg fgaf|gabg e2 d2|gabg fgaf gedB A2 G2:||
<end>
<start>
